X:275
T:B275-  Lay By Your Pleading
S:(2nd/2)
Q:1/4=120
L:1/4
M:C|
K:Gm
G/A/B/c/dG|g^f/g/ad|ba/g/ f/e/d/d/|[1 c/d/B/c/AG:|\
[2 c/d/B/c/AG/|:A/|BG3/4B/4cF3/4c/4|BG3/4d/4cB|\
ff3/4e/4 d3/4c/4 B3/4B/4|\
[1 c3/4d/4 B3/4c/4AG/:| [2 c3/4d/4 B3/4c/4AG|]

